X: 8
T: The High Drive
R: reel
M: 4/4
L: 1/8
K: Amaj
|: E | A3 B cBAE | F2 dF FEDF | DE E2 cBAc | BE E2 ecdB |
A3B cBAE | F2 dF FEDF | DE E2 cBAc | BAGB A3 :|
|: E | e3d eA A2 | EF F2 dFAF | DE E2 cBAc | BE E2 BcdB |
e3d eA A2 | EF F2 dFAF | DE E2 cBAc | BAGB A3 :|
E |: AEBE cE E2 | dFFE Fded | cE E2 cEAc | BE E2 BcdB |
AEBE cE E2 | dFFE Fded | cE E2 cEAc |[1 BAGB A2 cB :|[2 BAGB ABcd |]
|: eAce AceA | dFAd FAdA | cEAc EAcA | BAAB ABcd |
eAce AceA | dFAd FADF | DE E2 cBAc |[1 BAGB ABcd :|[2 BAGB A4 |]


Tune 4428	Setting 27059

